img/svg/telegram.svg

<svg width="50" height="50" viewBox="0 0 50 50" xmlns="http://www.w3.org/2000/svg">
<path d="M40.7344 6.24373C40.2328 6.28022 39.7405 6.39789 39.2766 6.59216H39.2703C38.825 6.76873 36.7078 7.65935 33.4891 9.00935L21.9547 13.8672C13.6782 17.3515 5.54222 20.7828 5.54222 20.7828L5.6391 20.7453C5.6391 20.7453 5.07816 20.9297 4.49222 21.3312C4.13023 21.5616 3.81874 21.863 3.5766 22.2172C3.2891 22.639 3.05785 23.2843 3.14378 23.9515C3.28441 25.0797 4.01566 25.7562 4.54066 26.1297C5.07191 26.5078 5.57816 26.6843 5.57816 26.6843H5.59066L13.2203 29.2547C13.5625 30.3531 15.5453 36.8718 16.0219 38.3734C16.3032 39.2703 16.5766 39.8312 16.9188 40.2594C17.0844 40.4781 17.2782 40.6609 17.511 40.8078C17.632 40.8782 17.7611 40.9338 17.8953 40.9734L17.8172 40.9547C17.8407 40.9609 17.8594 40.9797 17.8766 40.9859C17.9391 41.0031 17.9813 41.0093 18.061 41.0218C19.2688 41.3875 20.2391 40.6375 20.2391 40.6375L20.2938 40.5937L24.7985 36.4922L32.3485 42.2843L32.5203 42.3578C34.0938 43.0484 35.6875 42.664 36.5297 41.9859C37.3782 41.3031 37.7078 40.4297 37.7078 40.4297L37.7625 40.289L43.5969 10.4C43.7625 9.66248 43.8047 8.97185 43.6219 8.30154C43.4334 7.62314 42.9981 7.03967 42.4016 6.6656C41.9007 6.36109 41.3199 6.21411 40.7344 6.24373V6.24373ZM40.5766 9.44685C40.5703 9.54529 40.5891 9.53435 40.5453 9.72341V9.7406L34.7657 39.3187C34.7407 39.3609 34.6985 39.4531 34.5828 39.5453C34.461 39.6422 34.3641 39.7031 33.8563 39.5015L24.6219 32.4218L19.0438 37.5062L20.2157 30.0218L35.3032 15.9593C35.925 15.3812 35.7172 15.2593 35.7172 15.2593C35.761 14.55 34.7782 15.0515 34.7782 15.0515L15.7532 26.8375L15.7469 26.8062L6.62816 23.7359V23.7297L6.60472 23.725C6.62071 23.7197 6.63636 23.7134 6.6516 23.7062L6.7016 23.6812L6.75003 23.664C6.75003 23.664 14.8922 20.2328 23.1688 16.7484C27.3125 15.0031 31.4875 13.2453 34.6985 11.889C37.9094 10.5406 40.2828 9.55154 40.4172 9.49841C40.5453 9.44841 40.4844 9.44841 40.5766 9.44841V9.44685Z" fill="black"/>
</svg>

<svg width="50" height="50" xmlns="http://www.w3.org/2000/svg"><path d="M40.734 6.244a4.647 4.647 0 00-1.457.348h-.007c-.445.177-2.562 1.067-5.78 2.417l-11.535 4.858c-8.277 3.485-16.413 6.916-16.413 6.916l.097-.038s-.56.185-1.147.586c-.362.23-.673.532-.915.886-.288.422-.52 1.067-.433 1.735.14 1.128.872 1.804 1.397 2.178.53.378 1.037.554 1.037.554h.013l7.63 2.57c.341 1.1 2.324 7.618 2.8 9.12.282.896.556 1.457.898 1.885.165.22.36.402.592.549.121.07.25.126.384.165l-.078-.018c.024.006.042.025.06.03.062.018.104.024.184.037 1.208.366 2.178-.384 2.178-.384l.055-.044 4.505-4.102 7.55 5.792.171.074c1.574.69 3.167.306 4.01-.372.848-.683 1.178-1.556 1.178-1.556l.055-.141L43.597 10.4c.166-.738.208-1.428.025-2.098a2.823 2.823 0 00-1.22-1.636 2.925 2.925 0 00-1.668-.422zm-.157 3.203c-.007.098.012.087-.032.276v.018l-5.78 29.578c-.024.042-.066.134-.182.226-.122.097-.219.158-.727-.044l-9.234-7.08-5.578 5.085 1.172-7.484 15.087-14.063c.622-.578.414-.7.414-.7.044-.709-.939-.207-.939-.207L15.753 26.837l-.006-.03-9.119-3.071v-.006l-.023-.005a.417.417 0 00.047-.019l.05-.025.048-.017s8.142-3.431 16.419-6.916c4.143-1.745 8.319-3.503 11.53-4.859a1262.61 1262.61 0 015.718-2.39c.128-.05.067-.05.16-.05v-.002z"/></svg>
